X: 483
T: Cuihua beiqian
L: 1/8
M: 2/4
K: A
B e e d/ B/ [I:setbarnb 1]| 
AB2B | 
e f e d/ B/ | 
A> F E/ F/ E | 
AA2B | 
eB2E | 
A B E E/ D/ | 
B,4 |]

@@@ Tune index: 9357
